Newaita/actions/22/go-down.svg

<svg height="22" viewBox="0 0 22 22" width="22" xmlns="http://www.w3.org/2000/svg"><g fill="#424242"><path d="m11.824219 4.71875v12.734375c0 .503906-.40625.910156-.910157.910156-.5 0-.90625-.40625-.90625-.910156v-12.734375c0-.5.40625-.910156.90625-.910156.503907 0 .910157.410156.910157.910156zm0 0"/><path d="m5.125 10.378906 6.433594 6.433594c.355468.351562.355468.929688 0 1.285156-.355469.355469-.929688.355469-1.285156 0l-6.433594-6.433594c-.355469-.355468-.355469-.929687 0-1.285156.355468-.355468.929687-.355468 1.285156 0zm0 0"/><path d="m17.992188 11.664062-6.433594 6.433594c-.355469.355469-.929688.355469-1.285156 0-.355469-.355468-.355469-.933594 0-1.285156l6.429687-6.433594c.355469-.355468.933594-.355468 1.289063 0 .355468.355469.355468.929688 0 1.285156zm0 0"/></g></svg>

<?xml version="1.0" encoding="UTF-8"?>
<svg xmlns="http://www.w3.org/2000/svg" xmlns:xlink="http://www.w3.org/1999/xlink" width="22px" height="22px" viewBox="0 0 22 22" version="1.1">
<g id="surface1">
<path style=" stroke:none;fill-rule:nonzero;fill:rgb(25.882354%,25.882354%,25.882354%);fill-opacity:1;" d="M 11.824219 4.71875 L 11.824219 17.453125 C 11.824219 17.957031 11.417969 18.363281 10.914062 18.363281 C 10.414062 18.363281 10.007812 17.957031 10.007812 17.453125 L 10.007812 4.71875 C 10.007812 4.21875 10.414062 3.808594 10.914062 3.808594 C 11.417969 3.808594 11.824219 4.21875 11.824219 4.71875 Z M 11.824219 4.71875 "/>
<path style=" stroke:none;fill-rule:nonzero;fill:rgb(25.882354%,25.882354%,25.882354%);fill-opacity:1;" d="M 5.125 10.378906 L 11.558594 16.8125 C 11.914062 17.164062 11.914062 17.742188 11.558594 18.097656 C 11.203125 18.453125 10.628906 18.453125 10.273438 18.097656 L 3.839844 11.664062 C 3.484375 11.308594 3.484375 10.734375 3.839844 10.378906 C 4.195312 10.023438 4.769531 10.023438 5.125 10.378906 Z M 5.125 10.378906 "/>
<path style=" stroke:none;fill-rule:nonzero;fill:rgb(25.882354%,25.882354%,25.882354%);fill-opacity:1;" d="M 17.992188 11.664062 L 11.558594 18.097656 C 11.203125 18.453125 10.628906 18.453125 10.273438 18.097656 C 9.917969 17.742188 9.917969 17.164062 10.273438 16.8125 L 16.703125 10.378906 C 17.058594 10.023438 17.636719 10.023438 17.992188 10.378906 C 18.347656 10.734375 18.347656 11.308594 17.992188 11.664062 Z M 17.992188 11.664062 "/>
</g>
</svg>
